src/assets/logo/aerena.svg

<svg xmlns="http://www.w3.org/2000/svg" width="1000" height="1000" fill="none" xmlns:v="https://vecta.io/nano"><path d="M270 0h420l310 860-310 140-60.708-258.01-.002.001-49.291-209.49.001-.001L530 320l-95.845 272.4 108.372-44.509 49.286 209.466L0 1000l245.916-702.617L455 145l-169.857 40.305 46.101-131.716L270 0z" fill="url(#A)"/><path d="M952.249 609.578L880.044 409.267L1000 360L952.249 609.578Z" fill="url(#A)"/><defs><linearGradient id="A" x1="264.298" y1="217.504" x2="930.676" y2="910.745" gradientUnits="userSpaceOnUse"><stop stop-color="#ab750f"/><stop offset=".484" stop-color="#d8a956"/><stop offset="1" stop-color="#ab750f"/></linearGradient></defs></svg>

<svg width="1000" height="1000" viewBox="0 0 1000 1000" fill="none" xmlns="http://www.w3.org/2000/svg">
<g id="aerena">
<path d="M270 0H690L1000 860L690 1000L629.292 741.99L629.29 741.991L579.999 532.501L580 532.5L530 320L434.155 592.4L542.527 547.891L591.813 757.357L0 1000L245.916 297.383L455 145L285.143 185.305L331.244 53.5886L270 0Z" fill="url(#paint0_linear_112_1010)"/>
<path d="M952.249 609.578L880.044 409.267L1000 360L952.249 609.578Z" fill="url(#paint1_linear_112_1010)"/>
</g>
<defs>
<linearGradient id="paint0_linear_112_1010" x1="264.298" y1="217.504" x2="930.676" y2="910.745" gradientUnits="userSpaceOnUse">
<stop stop-color="#AB750F"/>
<stop offset="0.484" stop-color="#D8A956"/>
<stop offset="1" stop-color="#AB750F"/>
</linearGradient>
<linearGradient id="paint1_linear_112_1010" x1="264.298" y1="217.504" x2="930.676" y2="910.745" gradientUnits="userSpaceOnUse">
<stop stop-color="#AB750F"/>
<stop offset="0.484" stop-color="#D8A956"/>
<stop offset="1" stop-color="#AB750F"/>
</linearGradient>
</defs>
</svg>
